X:1093
T:Wind In The Willows, The
C:Joe Buchanan's Scottish Tome - Page 625.1
I:625 1
Z:Carl Allison
R:Folk
L:1/4
M:4/2
K:C
V:2 treble
C | "C"C2 E/G/ | "Dm"A<F E | "G7"D2 E/F/ | "Em"G3- | G2 E | "Am"C2 D/E/ | "Dm"F<D D/C/ | "G7"B,2 C/D/ |
"C"C3- | C2 z | C E G | "Dm"A F>E | "G7"D E2 | "G7"D/ E2 F/ | "Em"G3- | G E/D/ | "Am"C D/E/ |
"Dm"F D>C | "G7"B,2 C/D/ | "C"C3- | C2 B/c/ | "F"d>c A | "C"A<G B/c/ | "F"d>c A | "C"G2 B/c/ |
"F"d c>A | "C"A G G | "Dm"A<c E | "G7"D3- | D2 D | "C"C E>G | "Dm"A<F F/E/ | "G7"D2 E/F/ | 

